packages/core/src/svgs/tokens/branded/ORB.svg

<svg width="24" height="24" viewBox="0 0 24 24" fill="none" xmlns="http://www.w3.org/2000/svg">
<path d="M11.9999 22C17.5228 22 22 17.5228 22 11.9999C22 6.47713 17.5228 2 11.9999 2C6.47714 2 2 6.47713 2 11.9999C2 17.5228 6.47714 22 11.9999 22Z" fill="#6E6E6E"/>
<path fill-rule="evenodd" clip-rule="evenodd" d="M6.24384 3.82519L6.02509 3.98144C6.48759 4.58144 6.99383 5.32519 6.86258 5.50643L6.80009 5.59393C6.58134 5.91893 6.23759 6.42518 4.85009 6.33143C4.47899 6.3038 4.10599 6.31637 3.7376 6.36893C3.17836 7.18743 2.74441 8.08481 2.4501 9.03143C3.0001 8.75018 3.70009 8.49392 4.38135 8.49392C5.81884 8.49392 6.4376 9.11893 6.21259 9.46893C5.98758 9.81892 5.0501 10.1877 4.38135 10.2064C3.80635 10.2315 2.63136 11.0064 2.00635 12.2377C2.00635 12.6252 2.04386 13.0064 2.09385 13.3876C2.23761 12.6439 2.59385 11.6876 3.36885 11.2564C4.66259 10.5252 6.27509 10.7127 6.86258 11.2564C7.45008 11.7939 8.13758 12.5564 8.03759 13.4439C8.01186 13.7863 7.90702 14.1181 7.73134 14.413C7.55564 14.708 7.31388 14.9582 7.02508 15.1439C6.55633 15.4377 6.02509 16.9313 6.14384 18.019C6.20633 18.6627 6.28134 19.5689 6.33134 20.2377C6.71042 20.5002 7.10719 20.7361 7.51883 20.9439C7.05152 19.9636 6.82646 18.8855 6.86258 17.8002C7.02508 15.9751 8.01259 14.7876 8.38758 14.9689C8.48133 15.0126 8.63133 15.1564 8.82508 15.3439C9.40013 15.919 10.3876 16.9001 11.725 16.9502C12.0563 16.9627 12.3563 16.9627 12.6251 16.9627C13.7938 16.9627 14.3939 16.9627 14.8626 18.0814C15.2884 19.0888 15.7217 20.093 16.1625 21.0938C16.4125 20.9814 16.6687 20.8439 16.9126 20.7126C16.6501 19.8565 16.2251 18.5251 16.0125 18.0814C15.9502 17.9541 15.8836 17.8291 15.8125 17.7064C15.6187 17.3439 15.5126 17.1626 15.7313 16.7314C15.9069 16.4005 16.1713 16.1252 16.4948 15.9363C16.8184 15.7475 17.188 15.6527 17.5625 15.6626C18.4687 15.6626 19.0626 15.6814 19.7938 16.1189C20.1375 16.3188 20.4126 16.7189 20.6062 17.0939C21.3895 15.7728 21.8559 14.2881 21.9687 12.7564C21.8871 12.629 21.7882 12.5133 21.675 12.4127C21.2375 12.0439 21.4376 11.6315 21.9813 11.3502L21.9687 11.1814C21.667 11.0519 21.38 10.8905 21.1126 10.7002C20.9438 10.5815 20.75 10.4689 20.5626 10.3627C19.9625 10.0127 19.3751 9.67513 19.5125 9.16268C19.6751 8.52517 19.8563 8.06267 21.1063 7.86892C21.0188 7.66893 20.9187 7.46893 20.8188 7.27518C20.5938 7.35642 20.2562 7.40017 19.7938 7.30017C19.0126 7.12517 18.0938 6.15644 17.7313 5.69393C17.2372 5.30813 16.724 4.94726 16.1938 4.61269C15.8188 4.40018 15.45 3.34395 15.3813 2.58144L15.0313 2.46895C15.0876 3.34395 15.0501 4.51268 14.5938 4.61269C13.8314 4.83135 13.0134 4.73922 12.3188 4.35643C11.8064 4.07518 11.0688 3.89394 10.4751 3.75019C10.1525 3.68972 9.83938 3.58674 9.54378 3.44394C9.28755 3.25645 8.90008 2.98144 9.02508 2.4502C8.82508 2.5127 8.63759 2.57519 8.44383 2.65019C8.43133 2.98143 8.27509 3.35644 7.79384 3.66269C6.73133 4.32518 6.53759 4.12519 6.25008 3.82519H6.24384ZM11.8876 5.33143C11.7438 5.75019 10.9251 5.85643 10.0625 5.56268C9.18751 5.26894 8.60633 4.69394 8.75008 4.27519C8.88759 3.85643 9.70638 3.75019 10.5688 4.04394C11.4438 4.33768 12.0251 4.91269 11.8813 5.33143H11.8876ZM4.75009 7.31893C4.75009 7.51268 4.5126 7.66893 4.21885 7.66893C3.9251 7.66893 3.6876 7.51268 3.6876 7.31893C3.6876 7.13143 3.9251 6.96893 4.21885 6.96893C4.5126 6.96893 4.75009 7.12517 4.75009 7.31893ZM7.08759 8.19392C7.33759 8.44393 7.71258 8.48142 7.93133 8.27517C8.13758 8.06267 8.10633 7.68142 7.85009 7.43142C7.60009 7.17518 7.22509 7.13767 7.00634 7.35018C6.80009 7.56267 6.83134 7.93767 7.08759 8.19392ZM19.9562 11.1189C19.8772 11.1951 19.7712 11.2373 19.6612 11.2361C19.5514 11.235 19.4463 11.1906 19.3688 11.1126C19.3289 11.0745 19.2968 11.029 19.2746 10.9784C19.2523 10.928 19.2402 10.8736 19.239 10.8183C19.2379 10.7632 19.2476 10.7084 19.2678 10.6569C19.2879 10.6055 19.3179 10.5586 19.3563 10.5189C19.3957 10.4803 19.4422 10.4497 19.4934 10.4289C19.5446 10.4084 19.5992 10.398 19.6545 10.3986C19.7096 10.3992 19.7642 10.4107 19.8149 10.4324C19.8657 10.4542 19.9116 10.4857 19.95 10.5252C20.1126 10.6939 20.1188 10.9627 19.95 11.1189H19.9562ZM7.95633 9.81893L8.20633 9.46266C8.41884 9.15641 8.80007 9.01892 9.16257 9.11893C9.51884 9.2127 9.78134 9.52522 9.80001 9.90015L9.83136 10.4126C9.84186 10.7018 9.78061 10.9889 9.65301 11.2485C9.5254 11.5081 9.33538 11.732 9.10001 11.9001C8.96257 11.9939 8.76884 12.0502 8.60008 12.0252H8.58134C8.37509 11.9876 8.20009 11.8689 8.09383 11.6939L7.91258 11.4127C7.76257 11.1721 7.68673 10.8927 7.69451 10.6092C7.70229 10.3258 7.79336 10.0509 7.95633 9.81893ZM13.9125 5.28768C13.3125 5.38144 12.6437 6.31268 12.3812 6.76893C12.3812 7.38143 12.6437 7.91267 13.6188 7.91267C14.5876 7.91267 15.0939 7.53768 15.1626 7.03767C15.2251 6.55018 14.6625 5.16893 13.9125 5.28768ZM15.5875 6.16268C15.5813 6.51893 15.6438 7.33768 15.9563 7.67518C16.3438 8.10642 17.6 8.30018 17.9812 7.88768C18.3563 7.46893 18.25 7.00018 17.6689 6.46893L17.425 6.24394C16.9188 5.76893 16.4062 5.28768 16.0688 5.53144C15.7563 5.76269 15.6189 6.04393 15.5875 6.15644V6.16268ZM11.0438 9.7689C10.9 9.38143 11.3189 8.99392 11.55 8.84392C11.6689 8.93142 11.9688 9.19389 12.2376 9.55016C12.5751 9.98765 12.0312 10.2752 11.7876 10.3002C11.5376 10.3251 11.2251 10.2502 11.0438 9.7689ZM18.0126 8.84392C17.7625 8.99392 17.3063 9.38143 17.4625 9.7689C17.6626 10.2502 18 10.3314 18.2688 10.3002C18.5313 10.2752 19.125 9.98765 18.7626 9.55016C18.4687 9.19389 18.1376 8.93142 18.0126 8.84392ZM15.6187 8.56268C16.025 8.62517 16.15 9.18761 16.1625 9.46266C16.0313 9.52522 15.6501 9.6502 15.2126 9.71261C14.6562 9.77517 14.6813 9.16268 14.7875 8.93767C14.8875 8.71267 15.1125 8.48142 15.6187 8.56268ZM15.85 12.0127C16.0125 11.9252 16.4376 11.7814 16.8251 11.9501C17.4329 12.3014 17.9659 12.7685 18.3938 13.3252C18.55 13.6126 18.0438 14.8627 17.1751 14.9502C16.3001 15.044 15.9126 14.6626 15.6126 14.0752C15.3188 13.4939 14.875 12.6001 15.85 12.0127ZM20.5501 13.419C20.2688 13.1877 19.8187 13.4064 19.6313 13.5439C19.5063 13.6877 19.2939 14.0438 19.3938 14.3815C19.525 14.7939 19.8938 15.2376 20.5501 15.6751C21.0625 16.0189 21.1314 15.5252 21.2001 15.0564C21.2187 14.9251 21.2375 14.7876 21.2625 14.6814C21.3937 14.1814 20.9001 13.7064 20.5501 13.419ZM12.1126 11.5252C12.5436 11.6585 12.957 11.8431 13.3437 12.0751C13.75 12.3627 14.8626 13.4751 14.8626 14.7689C14.8626 16.0689 14.2813 16.3002 13.0626 16.3002C11.8376 16.3002 10.0188 14.8376 9.78134 14.3189C9.64878 14.0233 9.61859 13.692 9.69559 13.3772C9.77259 13.0625 9.95225 12.7825 10.2063 12.5814C10.325 12.4814 10.4313 12.3876 10.5314 12.2877C10.9689 11.8814 11.3438 11.5252 12.1126 11.5252Z" fill="#EC9835"/>
<path d="M15.0814 5.41253C14.925 5.40001 14.6376 5.31877 14.7875 5.07503L14.875 4.93128C15.0376 4.66878 15.1875 4.41252 15.3751 4.46877C15.6001 4.53753 15.975 5.11878 15.0814 5.41253ZM12.8939 4.96252C12.7189 4.88753 12.425 4.83752 12.3 4.82503C12.1751 4.98753 12.2688 5.28128 12.4501 5.56877C12.6125 5.81877 12.825 5.60627 13 5.43752L13.0751 5.36252C13.2625 5.19378 13.1063 5.05002 12.8876 4.96252H12.8939ZM8.43759 5.66877C8.18754 5.58837 7.92487 5.55448 7.66259 5.56877C7.4376 6.15002 7.85634 6.53751 8.16259 6.81876C8.25009 6.90002 8.32509 6.96251 8.3751 7.02502C8.6251 7.32502 8.9001 7.70002 8.9001 8.26251C8.9001 8.57502 9.04384 8.61251 9.24381 8.66876C9.41254 8.71876 9.61889 8.78127 9.80629 9.01251C10.2375 9.52506 10.4939 9.71245 10.7313 9.21254C10.9063 8.85627 11.2814 8.63126 11.5751 8.45626C11.6875 8.38752 11.7938 8.32501 11.8688 8.26877C12.1313 8.05002 11.8563 7.75001 11.6063 7.51876C11.3563 7.28126 11.5188 7.08126 11.7189 6.83126C11.9188 6.58126 11.1313 6.19377 10.3001 6.29377C9.71879 6.35627 9.26889 6.10627 8.9001 5.89378C8.75407 5.80307 8.59908 5.72767 8.43759 5.66877ZM6.08135 6.58126C5.65011 6.85002 5.1751 6.86251 4.99386 6.83752C4.51886 7.18752 5.81885 7.82501 6.35635 7.85002C6.6501 7.86252 6.69385 7.63751 6.7376 7.41252C6.77509 7.23127 6.8126 7.05001 6.98134 6.98752C7.35634 6.85002 7.46259 6.26877 7.21259 6.09377C7.01885 5.95627 6.75635 6.13127 6.3876 6.37502L6.0751 6.58126H6.08135ZM6.58135 8.15627C6.6626 8.34377 6.90634 8.73126 7.28759 8.81252C7.76884 8.91876 7.81259 9.07502 7.5876 9.26256C7.3626 9.44995 6.4626 9.29377 6.41885 8.92501V8.86251C6.3751 8.50001 6.3251 8.00001 6.5876 8.15627H6.58135ZM6.7251 9.78756C6.5001 9.78756 6.38135 10.0375 6.35009 10.1625C6.35009 10.2563 6.38134 10.475 6.51885 10.6437C6.68135 10.8562 7.20635 10.8625 7.30009 10.7501C7.3501 10.6938 7.31885 10.6563 7.26885 10.6C7.20432 10.5317 7.15904 10.4477 7.13759 10.3563C7.0751 10.1062 7.00636 9.79383 6.7251 9.79383V9.78756ZM8.88134 12.35C8.75635 12.325 8.4626 12.3125 8.35009 12.4563C8.20634 12.6437 8.4751 14.1063 8.76885 14.2063C8.9876 14.2813 9.10002 13.7812 9.17512 13.4563L9.23754 13.2063C9.26889 13.1438 9.32504 13.0937 9.38133 13.0374C9.48137 12.9438 9.58127 12.8438 9.53139 12.7125C9.44389 12.5124 9.21887 12.35 8.88134 12.35ZM10.7376 10.125C10.55 10.0375 10.2875 10.525 10.3438 10.5874C10.3126 10.7187 10.2188 11.0312 10.0813 11.225C9.9126 11.4687 10.2438 11.7438 10.5314 11.6251C10.7188 11.5562 11.1439 11.4187 11.5063 11.3125L11.9814 11.1562C12.2938 11.0563 11.8439 10.5874 11.5626 10.5874C11.3626 10.5874 11.1376 10.4125 10.9501 10.2751C10.8688 10.2125 10.7939 10.15 10.7376 10.125ZM12.5813 8.45626C12.7189 8.37501 13.0751 8.20626 13.3438 8.20626C13.6814 8.20626 14.3439 8.74376 14.3251 8.975C14.3063 9.2 14.3188 9.73754 14.5626 9.91254C14.8126 10.0813 15.8126 10.325 16.0813 10.1187C16.1814 10.0375 16.2689 9.90626 16.3564 9.78756C16.4939 9.59375 16.6189 9.41247 16.7625 9.46249C16.8563 9.4937 16.8875 9.6375 16.9188 9.81249C16.9626 10.0687 17.025 10.4001 17.3563 10.5376L17.9938 10.8187C18.3938 11.0063 18.8001 11.1938 19.0251 11.2437C19.1688 11.2813 19.4 11.2874 19.65 11.2937C20.0251 11.3063 20.4126 11.3125 20.5564 11.4312C20.7125 11.5562 20.8375 11.8063 20.9564 12.05C21.0188 12.175 21.0814 12.3 21.1438 12.4C21.3376 12.7125 21.4563 12.8126 21.7188 13.025C21.9876 13.2501 21.9187 13.7313 21.7188 13.8938C21.525 14.0562 21.3439 13.8938 20.9564 13.5312L20.9501 13.5187C20.5564 13.1563 20.1813 12.8126 19.5313 12.9187L19.4938 12.925C18.8688 13.0313 18.8501 13.0313 18.5625 12.7749L18.4564 12.675C18.0689 12.3062 17.1251 11.4126 16.3187 11.5376C15.7125 11.6313 15.3439 12.1312 15.0876 12.4626C14.9625 12.625 14.875 12.75 14.8 12.7749L14.6876 12.8187C14.5189 12.8813 14.4126 12.9313 14.2501 12.5187L14.2438 12.4938C14.0563 12.0251 14.0563 12.0063 13.5564 11.7188H13.5501C13.0375 11.425 12.5813 11.1625 12.65 10.7938C12.6814 10.6437 12.775 10.5937 12.8625 10.5437C13.0063 10.4562 13.1438 10.375 13.0314 9.96256C12.9688 9.70633 12.8438 9.53745 12.7251 9.38754C12.5376 9.13758 12.3875 8.93751 12.5813 8.45001V8.45626ZM16.9251 8.41251C16.6813 8.40002 16.1876 8.22502 15.9876 8.15002L15.8938 8.11876C15.5314 7.99377 16.0939 8.64376 16.3501 8.88126C16.6001 9.1125 17.0625 9.02501 17.3126 8.88126C17.5626 8.73752 17.2251 8.42501 16.9251 8.41251ZM18.9938 9.08756C18.8876 9.05626 18.6375 8.90002 18.4813 8.51877C18.2938 8.03126 18.3563 7.44376 18.6063 7.43126C18.8688 7.42502 19.2563 7.63751 19.4375 7.88126C19.6188 8.13126 19.2125 9.55627 19 9.08756H18.9938ZM15.1063 15.55C15.1751 15.1875 15.15 14.5687 15.1438 14.5188C15.1438 14.4313 15.1875 14.2563 15.3751 14.2687C15.5189 14.2812 15.6313 14.5249 15.7625 14.7874C15.8376 14.95 15.9126 15.1125 16.0125 15.2437C16.2312 15.5563 15.9313 15.6938 15.6376 15.825L15.5626 15.8625C15.2501 16.0063 15.0376 15.9188 15.1063 15.55ZM17.9688 14.8625C18.0313 14.9063 18.2313 14.9 18.5188 14.575C18.8876 14.1688 18.9751 14.2438 19.0626 14.375L19.125 14.4751C19.2688 14.6813 19.5376 15.0625 19.5876 15.2188C19.6437 15.4062 19.1501 15.4062 18.6375 15.3625L18.4438 15.3501C18.0063 15.3187 17.6626 15.3 17.9688 14.8688V14.8625Z" fill="#FFED68"/>
<path d="M12.8257 2.34993C14.8007 1.84993 17.4257 3.33742 19.007 4.75617C20.382 6.19366 22.5319 9.41237 20.982 10.4437C19.2883 11.5687 12.6069 7.58116 12.1194 5.24992C11.7195 3.38743 12.4257 2.54367 12.8257 2.34993Z" fill="url(#paint0_linear_364_5001)"/>
<defs>
<linearGradient id="paint0_linear_364_5001" x1="20.1698" y1="6.43071" x2="17.2761" y2="8.67445" gradientUnits="userSpaceOnUse">
<stop stop-color="white" stop-opacity="0.7"/>
<stop offset="1" stop-color="#A3A397" stop-opacity="0"/>
</linearGradient>
</defs>
</svg>

<svg xmlns="http://www.w3.org/2000/svg" width="24" height="24" fill="none" viewBox="0 0 24 24">
    <path fill="#6E6E6E" d="M12 22c5.523 0 10-4.477 10-10S17.523 2 12 2 2 6.477 2 12s4.477 10 10 10"/>
    <path fill="#EC9835" fill-rule="evenodd" d="m6.244 3.825-.219.156c.463.6.969 1.344.838 1.525l-.063.088c-.219.325-.562.831-1.95.737a5 5 0 0 0-1.112.038A10 10 0 0 0 2.45 9.03c.55-.28 1.25-.537 1.931-.537 1.438 0 2.057.625 1.832.975s-1.163.719-1.832.737c-.575.026-1.75.8-2.375 2.032 0 .387.038.768.088 1.15.144-.744.5-1.7 1.275-2.132 1.294-.73 2.906-.543 3.494 0 .587.538 1.275 1.3 1.175 2.188a2.22 2.22 0 0 1-1.013 1.7c-.469.294-1 1.787-.881 2.875.062.644.137 1.55.187 2.219q.57.393 1.188.706a6.8 6.8 0 0 1-.656-3.144c.162-1.825 1.15-3.012 1.525-2.831.093.044.243.187.437.375.575.575 1.563 1.556 2.9 1.606.331.013.631.013.9.013 1.169 0 1.769 0 2.238 1.118q.638 1.512 1.3 3.013c.25-.113.506-.25.75-.381-.263-.857-.688-2.188-.9-2.632a6 6 0 0 0-.2-.375c-.194-.362-.3-.543-.082-.975a2.01 2.01 0 0 1 1.832-1.068c.906 0 1.5.018 2.23.456.345.2.62.6.813.975a9.9 9.9 0 0 0 1.363-4.338 1.7 1.7 0 0 0-.294-.343c-.437-.37-.237-.781.306-1.063l-.012-.169a4.6 4.6 0 0 1-.856-.48 7 7 0 0 0-.55-.338c-.6-.35-1.188-.688-1.05-1.2.162-.638.343-1.1 1.593-1.294-.087-.2-.187-.4-.287-.594-.225.081-.563.125-1.025.025-.781-.175-1.7-1.144-2.063-1.606a19 19 0 0 0-1.537-1.081c-.375-.213-.744-1.27-.813-2.032l-.35-.112c.057.875.02 2.044-.437 2.144a3 3 0 0 1-2.275-.257c-.513-.28-1.25-.462-1.844-.606a3.7 3.7 0 0 1-.931-.306c-.256-.188-.644-.463-.519-.994-.2.063-.387.125-.581.2-.013.331-.169.706-.65 1.013-1.063.662-1.256.462-1.544.162zm5.644 1.506c-.144.42-.963.525-1.825.232-.875-.294-1.457-.87-1.313-1.288.138-.419.956-.525 1.819-.231.875.294 1.456.869 1.312 1.287zM4.75 7.32c0 .194-.237.35-.531.35s-.531-.156-.531-.35c0-.188.237-.35.53-.35.295 0 .532.156.532.35m2.338.875c.25.25.625.287.843.081.207-.212.175-.594-.08-.844-.25-.256-.626-.293-.845-.08-.206.212-.175.587.082.843m12.868 2.925a.42.42 0 0 1-.587-.006.42.42 0 0 1-.013-.594.42.42 0 0 1 .298-.12.42.42 0 0 1 .296.126c.163.169.169.438 0 .594zm-12-1.3.25-.356a.88.88 0 0 1 .957-.344.85.85 0 0 1 .637.781l.031.513A1.75 1.75 0 0 1 9.1 11.9a.74.74 0 0 1-.5.125h-.019a.71.71 0 0 1-.487-.331l-.181-.281a1.44 1.44 0 0 1 .043-1.594m5.956-4.531c-.6.093-1.268 1.025-1.53 1.48 0 .613.262 1.145 1.237 1.145.969 0 1.475-.375 1.544-.875.062-.488-.5-1.87-1.25-1.75m1.675.875c-.006.356.057 1.175.37 1.512.387.431 1.643.625 2.024.213.375-.42.269-.888-.312-1.42l-.244-.224c-.506-.475-1.019-.956-1.356-.713-.313.232-.45.513-.481.625zm-4.543 3.606c-.144-.388.275-.775.506-.925.119.087.419.35.688.706.337.438-.207.725-.45.75-.25.025-.563-.05-.744-.531m6.969-.925c-.25.15-.707.537-.55.925.2.481.537.562.806.531.262-.025.856-.312.494-.75a4.2 4.2 0 0 0-.75-.706m-2.394-.281c.406.062.531.625.544.9a4 4 0 0 1-.95.25c-.557.062-.532-.55-.425-.775.1-.225.325-.457.83-.375m.231 3.45c.162-.088.588-.232.975-.063.608.351 1.14.819 1.569 1.375.156.288-.35 1.538-1.219 1.625-.875.094-1.262-.287-1.562-.875-.294-.581-.738-1.475.237-2.062m4.7 1.406c-.281-.231-.731-.013-.919.125-.125.144-.337.5-.237.838.131.412.5.856 1.156 1.293.512.344.581-.15.65-.619.019-.13.038-.268.063-.375.13-.5-.363-.975-.713-1.262m-8.437-1.894c.43.133.844.318 1.23.55.407.288 1.52 1.4 1.52 2.694 0 1.3-.582 1.531-1.8 1.531-1.225 0-3.044-1.462-3.282-1.981a1.456 1.456 0 0 1 .425-1.738c.119-.1.225-.193.325-.293.438-.407.813-.763 1.582-.763" clip-rule="evenodd"/>
    <path fill="#FFED68" d="M15.081 5.413c-.156-.013-.443-.094-.293-.338l.087-.144c.163-.262.313-.518.5-.462.225.069.6.65-.294.944m-2.187-.45a2.5 2.5 0 0 0-.594-.138c-.125.163-.031.456.15.744.163.25.375.037.55-.131l.075-.075c.188-.17.031-.313-.187-.4zm-4.456.706a2.2 2.2 0 0 0-.775-.1c-.225.581.193.969.5 1.25.087.081.162.144.212.206.25.3.525.675.525 1.238 0 .312.144.35.344.406.169.05.375.112.562.344.432.512.688.7.925.2.175-.357.55-.582.844-.757.113-.068.219-.131.294-.187.262-.219-.013-.519-.263-.75-.25-.238-.087-.438.113-.688s-.588-.637-1.419-.537c-.581.062-1.031-.188-1.4-.4a2.5 2.5 0 0 0-.462-.225M6.08 6.58a1.8 1.8 0 0 1-1.087.257c-.475.35.825.987 1.362 1.012.294.013.338-.212.382-.437.037-.182.075-.363.243-.425.375-.138.482-.72.232-.894-.194-.138-.457.037-.825.281l-.313.206zm.5 1.575c.082.188.325.575.707.657.48.106.525.262.3.45-.225.187-1.125.03-1.17-.338v-.062c-.043-.363-.093-.863.17-.707zm.144 1.632c-.225 0-.344.25-.375.374 0 .094.031.313.169.482.162.212.687.219.781.106.05-.056.019-.094-.031-.15a.53.53 0 0 1-.131-.244c-.063-.25-.132-.562-.413-.562zm2.156 2.562c-.125-.025-.418-.037-.53.106-.145.188.124 1.65.418 1.75.219.075.331-.425.406-.75l.063-.25c.03-.062.087-.112.143-.169.1-.093.2-.193.15-.325-.087-.2-.312-.362-.65-.362m1.857-2.225c-.188-.088-.45.4-.394.462-.031.132-.125.444-.263.638-.168.244.163.519.45.4.188-.069.613-.206.975-.312l.475-.157c.313-.1-.137-.569-.418-.569-.2 0-.425-.175-.613-.312-.081-.062-.156-.125-.212-.15m1.843-1.669c.138-.081.494-.25.763-.25.337 0 1 .538.981.769-.019.225-.006.763.238.938.25.168 1.25.412 1.518.206.1-.082.188-.213.275-.331.138-.194.263-.376.406-.326.094.032.125.175.157.35.044.257.106.588.437.726l.638.28c.4.188.806.376 1.031.426.144.037.375.043.625.05.375.012.763.018.906.137.156.125.281.375.4.619.063.125.125.25.188.35.194.313.312.413.575.625.269.225.2.706 0 .869-.194.162-.375 0-.763-.363l-.006-.012c-.394-.363-.769-.706-1.419-.6l-.037.006c-.625.106-.644.106-.931-.15l-.107-.1c-.387-.369-1.33-1.262-2.137-1.137-.606.093-.975.593-1.231.925-.125.162-.213.287-.288.312l-.112.044c-.17.062-.275.112-.438-.3l-.006-.025c-.188-.469-.188-.488-.688-.775h-.006c-.513-.294-.969-.556-.9-.925.031-.15.125-.2.213-.25.143-.088.28-.169.168-.581a1.4 1.4 0 0 0-.306-.575c-.187-.25-.338-.45-.144-.938zm4.344-.043c-.244-.013-.737-.188-.937-.263l-.094-.031c-.363-.125.2.525.456.762.25.232.712.144.963 0 .25-.143-.088-.456-.388-.468m2.069.675c-.106-.032-.357-.188-.513-.57-.187-.487-.125-1.074.125-1.087.263-.006.65.207.831.45.182.25-.225 1.675-.437 1.207zm-3.888 6.462c.07-.363.044-.981.038-1.031 0-.088.043-.263.231-.25.144.012.256.256.387.518.076.163.15.325.25.457.22.312-.08.45-.374.581l-.075.038c-.313.143-.525.056-.457-.313m2.863-.687c.062.043.262.037.55-.288.369-.406.456-.331.544-.2l.062.1c.144.206.413.588.463.744.056.187-.438.187-.95.144l-.194-.013c-.438-.031-.781-.05-.475-.481z"/>
    <path fill="url(#ORB__a)" d="M12.826 2.35c1.975-.5 4.6.987 6.181 2.406 1.375 1.438 3.525 4.656 1.975 5.688-1.694 1.125-8.375-2.863-8.863-5.194-.4-1.863.307-2.706.707-2.9"/>
    <defs>
        <linearGradient id="ORB__a" x1="20.17" x2="17.276" y1="6.431" y2="8.674" gradientUnits="userSpaceOnUse">
            <stop stop-color="#fff" stop-opacity=".7"/>
            <stop offset="1" stop-color="#A3A397" stop-opacity="0"/>
        </linearGradient>
    </defs>
</svg>
